src/assets/icons/weeks,simple,30.svg

<svg width="48" height="48" viewBox="0 0 48 48" fill="none" xmlns="http://www.w3.org/2000/svg">
<rect opacity="0.2" x="5" y="5" width="38" height="38" rx="4" fill="black"/>
<path d="M5 13C5 9.22876 5 7.34315 6.17157 6.17157C7.34315 5 9.22876 5 13 5H35C38.7712 5 40.6569 5 41.8284 6.17157C43 7.34315 43 9.22876 43 13V15H5V13Z" fill="black"/>
<path d="M15.6946 38.2386C19.6151 38.2386 22.419 36.0824 22.4105 33.0994C22.419 30.9261 21.0384 29.375 18.473 29.0511V28.9148C20.4247 28.5653 21.7713 27.1847 21.7628 25.2244C21.7713 22.4716 19.3594 20.3068 15.7457 20.3068C12.1662 20.3068 9.47301 22.4034 9.42188 25.4205H12.9588C13.0014 24.0909 14.2202 23.2301 15.7287 23.2301C17.2202 23.2301 18.2173 24.1335 18.2088 25.446C18.2173 26.8182 17.0497 27.7472 15.3707 27.7472H13.7429V30.4574H15.3707C17.348 30.4574 18.5838 31.446 18.5753 32.8523C18.5838 34.2415 17.3906 35.196 15.7031 35.196C14.0753 35.196 12.8565 34.3438 12.7884 33.0653H9.07244C9.1321 36.1165 11.8594 38.2386 15.6946 38.2386ZM31.907 38.3835C36.2962 38.3835 38.9467 35.0426 38.9553 29.2898C38.9638 23.5795 36.2791 20.3068 31.907 20.3068C27.5263 20.3068 24.8672 23.571 24.8587 29.2898C24.8416 35.0256 27.5092 38.375 31.907 38.3835ZM31.907 35.3239C29.9041 35.3239 28.6087 33.3125 28.6172 29.2898C28.6257 25.3267 29.9126 23.3324 31.907 23.3324C33.8928 23.3324 35.1882 25.3267 35.1882 29.2898C35.1967 33.3125 33.9013 35.3239 31.907 35.3239Z" fill="black"/>
</svg>

<svg xmlns="http://www.w3.org/2000/svg" width="48" height="48" fill="none" viewBox="0 0 48 48">
  <rect width="38" height="38" x="5" y="5" fill="#000" opacity=".2" rx="4"/>
  <path fill="#000" d="M5 13c0-3.771 0-5.657 1.172-6.828C7.343 5 9.229 5 13 5h22c3.771 0 5.657 0 6.828 1.172C43 7.343 43 9.229 43 13v2H5v-2zM15.695 38.239c3.92 0 6.724-2.157 6.715-5.14.009-2.173-1.372-3.724-3.937-4.048v-.136c1.952-.35 3.298-1.73 3.29-3.69.008-2.753-2.404-4.918-6.017-4.918-3.58 0-6.273 2.096-6.324 5.114h3.537c.042-1.33 1.261-2.19 2.77-2.19 1.491 0 2.488.902 2.48 2.215.008 1.372-1.16 2.301-2.838 2.301h-1.628v2.71h1.628c1.977 0 3.213.989 3.204 2.395.009 1.39-1.184 2.344-2.872 2.344-1.628 0-2.846-.852-2.915-2.13H9.072c.06 3.05 2.787 5.173 6.623 5.173zm16.212.145c4.39 0 7.04-3.341 7.048-9.094.009-5.71-2.676-8.983-7.048-8.983-4.38 0-7.04 3.264-7.048 8.983-.017 5.736 2.65 9.085 7.048 9.093zm0-3.06c-2.003 0-3.298-2.011-3.29-6.034.009-3.963 1.296-5.958 3.29-5.958 1.986 0 3.281 1.995 3.281 5.958.009 4.023-1.287 6.034-3.281 6.034z"/>
</svg>
